X:339
T: WO BIST DU DENN SO LANG GEWES'N
N: E0190B
O: Europa, Mitteleuropa, Deutschland, Wilsnack
R: erzaehlendes Volks - Lied, Sage, Familien - Geschichte
M: 4/4
L: 1/8
K: F
C2 | F2F2c2c2 | A2cAF4 |
G3FG2B2 | A2G2F2
C2 | F2F2c2c2 | A2cAF4 |
G3FG2B2 | A2G2F2
C2 | F2F2c2c2 | A2cAF2
F2 | G2G2E2C2 | F4z2
F2 | G2ABc4 | A4z2
c2 | d3cB2G2 | A4z2

@@@ Tune index: 3989
